src/actions/symbolic/widget-properties-symbolic.svg

<svg width="16" height="16" version="1.1" xmlns="http://www.w3.org/2000/svg">
 <path d="m9.1562 4.9941c-0.64 0-1.1562 0.5172-1.1562 1.1582v1.6875c0 0.64 0.51525 1.1543 1.1562 1.1543h4.6875c0.64 0 1.1562-0.5133 1.1562-1.1543v-1.6875c0-0.64-0.51525-1.1582-1.1562-1.1582zm-0.046875 1h4.7812c0.06 0 0.10938 0.051328 0.10938 0.11133v1.7812c-3.42e-4 0.060264-0.04911 0.10903-0.10938 0.10938h-4.7812c-0.060264-3.414e-4 -0.10903-0.049111-0.10938-0.10938v-1.7812c0-0.06 0.049375-0.11133 0.10938-0.11133zm-5.9355 4c-0.641 0-1.1562 0.5182-1.1562 1.1582v1.6875c0 0.641 0.51625 1.1543 1.1562 1.1543h10.686c0.641 0 1.1562-0.5143 1.1562-1.1543v-1.6875c0-0.641-0.51625-1.1582-1.1562-1.1582zm-0.17383 1.0059h11v2h-11z" fill="#363636"/>
 <path d="m7.7919 1.7939-3.7919 3.7919-1.7889-1.8129-0.70611 0.69111 2.495 2.536 4.498-4.5z" fill="#363636"/>
</svg>

<svg xmlns="http://www.w3.org/2000/svg" width="16" height="16">
    <path fill="#050505" fill-opacity=".7" d="M9.156 4.994C8.516 4.994 8 5.511 8 6.152V7.84c0 .64.515 1.154 1.156 1.154h4.688c.64 0 1.156-.513 1.156-1.154V6.152c0-.64-.515-1.158-1.156-1.158zm-.047 1h4.782c.06 0 .109.051.109.111v1.782a.11.11 0 0 1-.11.109H9.11a.11.11 0 0 1-.11-.11v-1.78c0-.06.05-.112.11-.112zm-5.935 4c-.641 0-1.156.518-1.156 1.158v1.688c0 .64.516 1.154 1.156 1.154H13.86c.64 0 1.156-.514 1.156-1.154v-1.688c0-.64-.516-1.158-1.156-1.158zM3 11h11v2H3zM7.792 1.794 4 5.586 2.211 3.773l-.706.691L4 7l4.498-4.5z"/>
</svg>
